src/asset/cabinet/settings.svg

<svg width="24" height="24" viewBox="0 0 24 24" fill="none" xmlns="http://www.w3.org/2000/svg">
    <path fill-rule="evenodd" clip-rule="evenodd" d="M9.70242 6.45533C9.9342 6.35919 10.1272 6.18153 10.2203 5.94855L10.7484 4.62837C10.9003 4.24871 11.268 3.99976 11.6769 3.99976H12.3228C12.7317 3.99976 13.0994 4.24871 13.2513 4.62837L13.7794 5.94853C13.8726 6.18153 14.0655 6.35919 14.2973 6.45534C14.5293 6.55157 14.7895 6.56152 15.0203 6.46259L16.3272 5.90249C16.7031 5.74142 17.1391 5.82539 17.4282 6.11453L17.885 6.57127C18.1741 6.86041 18.2581 7.29646 18.097 7.6723L17.537 8.97903C17.438 9.20992 17.448 9.47021 17.5443 9.70224C17.6404 9.93409 17.8181 10.1271 18.0512 10.2203L19.3711 10.7483C19.7508 10.9002 19.9998 11.2679 19.9998 11.6768V12.3227C19.9998 12.7316 19.7508 13.0993 19.3711 13.2512L18.0512 13.7792C17.8181 13.8724 17.6404 14.0654 17.5443 14.2972C17.448 14.5292 17.4381 14.7894 17.537 15.0203L18.0971 16.3271C18.2582 16.703 18.1742 17.139 17.8851 17.4282L17.4283 17.8849C17.1392 18.174 16.7031 18.258 16.3273 18.0969L15.0205 17.5369C14.7896 17.4379 14.5294 17.4479 14.2974 17.5441C14.0656 17.6403 13.8726 17.818 13.7793 18.051L13.2513 19.3711C13.0994 19.7508 12.7317 19.9998 12.3228 19.9998H11.6769C11.268 19.9998 10.9003 19.7508 10.7484 19.3711L10.2204 18.051C10.1272 17.818 9.93418 17.6403 9.70236 17.5442C9.47037 17.4479 9.21012 17.438 8.97927 17.5369L7.6723 18.097C7.29646 18.2581 6.86041 18.1741 6.57127 17.885L6.11453 17.4282C5.82539 17.1391 5.74142 16.7031 5.90249 16.3272L6.46269 15.0201C6.5616 14.7893 6.55165 14.5291 6.45544 14.2972C6.3593 14.0654 6.18167 13.8725 5.94871 13.7793L4.62837 13.2512C4.24871 13.0993 3.99976 12.7316 3.99976 12.3227V11.6768C3.99976 11.2679 4.24871 10.9002 4.62837 10.7483L5.94866 10.2202C6.18165 10.127 6.35931 9.93403 6.45547 9.70224C6.5517 9.47028 6.56166 9.21006 6.46273 8.97924L5.90258 7.67221C5.7415 7.29637 5.82548 6.86033 6.11462 6.57119L6.57136 6.11444C6.8605 5.8253 7.29654 5.74133 7.67239 5.90241L8.97948 6.46259C9.21028 6.5615 9.47048 6.55155 9.70242 6.45533ZM11.6769 1.99976H12.3228C13.5495 1.99976 14.6527 2.74661 15.1083 3.88558L15.2323 4.19579L15.5394 4.0642C16.6669 3.58097 17.975 3.8329 18.8424 4.70031L19.2992 5.15706C20.1666 6.02448 20.4185 7.33261 19.9353 8.46014L19.8037 8.76726L20.1139 8.89135C21.2529 9.34694 21.9998 10.4501 21.9998 11.6768V12.3227C21.9998 13.5494 21.2529 14.6526 20.1139 15.1081L19.8038 15.2322L19.9354 15.5393C20.4186 16.6668 20.1667 17.9749 19.2993 18.8424L18.8425 19.2991C17.9751 20.1665 16.667 20.4184 15.5395 19.9352L15.2324 19.8036L15.1083 20.1139C14.6527 21.2529 13.5495 21.9998 12.3228 21.9998H11.6769C10.4502 21.9998 9.34706 21.2529 8.89147 20.1139L8.76735 19.8036L8.46014 19.9353C7.33261 20.4185 6.02448 20.1666 5.15706 19.2992L4.70032 18.8425C3.8329 17.975 3.58098 16.6669 4.0642 15.5394L4.19583 15.2322L3.88558 15.1081C2.74661 14.6526 1.99976 13.5494 1.99976 12.3227V11.6768C1.99976 10.4501 2.74661 9.34694 3.88558 8.89135L4.19593 8.76722L4.06429 8.46005C3.58106 7.33252 3.83299 6.02439 4.7004 5.15697L5.15715 4.70023C6.02456 3.83281 7.3327 3.58089 8.46022 4.06412L8.7674 4.19576L8.89147 3.88558C9.34706 2.74661 10.4502 1.99976 11.6769 1.99976ZM11.9999 13.9998C13.1044 13.9998 13.9999 13.1043 13.9999 11.9998C13.9999 10.8952 13.1044 9.99976 11.9999 9.99976C10.8953 9.99976 9.99986 10.8952 9.99986 11.9998C9.99986 13.1043 10.8953 13.9998 11.9999 13.9998ZM15.9999 11.9998C15.9999 14.2089 14.209 15.9998 11.9999 15.9998C9.79072 15.9998 7.99986 14.2089 7.99986 11.9998C7.99986 9.79062 9.79072 7.99976 11.9999 7.99976C14.209 7.99976 15.9999 9.79062 15.9999 11.9998Z" fill="currentColor" fill-opacity="0.87"/>
</svg>

<svg width="24" height="24" fill="none" xmlns="http://www.w3.org/2000/svg"><path fill-rule="evenodd" clip-rule="evenodd" d="M9.702 6.455a.935.935 0 00.518-.506l.528-1.32a1 1 0 01.929-.63h.646a1 1 0 01.928.63l.528 1.32c.094.233.287.41.518.506a.93.93 0 00.723.008l1.307-.56a1 1 0 011.101.212l.457.456a1 1 0 01.212 1.101l-.56 1.307a.93.93 0 00.007.723.935.935 0 00.507.518l1.32.528a1 1 0 01.629.929v.646a1 1 0 01-.629.928l-1.32.528a.935.935 0 00-.507.518.93.93 0 00-.007.723l.56 1.307a1 1 0 01-.212 1.101l-.457.457a1 1 0 01-1.1.212l-1.307-.56a.93.93 0 00-.724.007.936.936 0 00-.518.507l-.528 1.32a1 1 0 01-.928.629h-.646a1 1 0 01-.929-.629l-.528-1.32a.935.935 0 00-.518-.507.93.93 0 00-.723-.007l-1.307.56a1 1 0 01-1.1-.212l-.457-.457a1 1 0 01-.213-1.1l.56-1.308a.93.93 0 00-.007-.723.935.935 0 00-.506-.518l-1.32-.528a1 1 0 01-.63-.928v-.646a1 1 0 01.63-.929l1.32-.528a.935.935 0 00.506-.518.93.93 0 00.008-.723l-.56-1.307a1 1 0 01.212-1.1l.456-.458a1 1 0 011.101-.212l1.307.56a.93.93 0 00.723-.007zM11.677 2h.646a3 3 0 012.785 1.886l.124.31.307-.132a3 3 0 013.303.636l.457.457a3 3 0 01.636 3.303l-.131.307.31.124A3 3 0 0122 11.677v.646a3 3 0 01-1.886 2.785l-.31.124.131.307a3 3 0 01-.636 3.303l-.456.457a3 3 0 01-3.303.636l-.308-.131-.124.31A3 3 0 0112.323 22h-.646a3 3 0 01-2.786-1.886l-.124-.31-.307.131a3 3 0 01-3.303-.636l-.457-.456a3 3 0 01-.636-3.304l.132-.307-.31-.124A3 3 0 012 12.323v-.646A3 3 0 013.886 8.89l.31-.124-.132-.307A3 3 0 014.7 5.157l.457-.457a3 3 0 013.303-.636l.307.132.124-.31A3 3 0 0111.677 2zM12 14a2 2 0 100-4 2 2 0 000 4zm4-2a4 4 0 11-8 0 4 4 0 018 0z" fill="currentColor" fill-opacity=".87"/></svg>
